X:500
T:Lord Ramsay
R:Strathspey
C:Nathaniel Gow
B:The Athole Collection
M:C
L:1/8
K:B_
e|d>ef>g f<d f2|d>fb>g f<d c2|d>ef>g f>g dB c2B:|
B|F>B DB GB De|
dc/B/ f>d ~c2 B>d|F>Bd>B Fd c>B G<B|
F>BD>F E>GF>e|d>b g/f/e/d/ c2B||
